src/pos-icons/numeric-10-box-multiple-outline.svg

<svg height="24" viewBox="0 0 24 24" width="24" xmlns="http://www.w3.org/2000/svg"><path d="m21 17v-14h-14v14zm0-16c1.11 0 2 .9 2 2v14c0 1.11-.89 2-2 2h-14c-1.1 0-2-.89-2-2v-14c0-1.1.9-2 2-2zm-18 4v16h16v2h-16c-1.1 0-2-.89-2-2v-16zm9 0h-4v2h2v8h2zm6 0h-2c-1.1 0-2 .9-2 2v6c0 1.11.9 2 2 2h2c1.11 0 2-.89 2-2v-6c0-1.1-.89-2-2-2m0 8h-2v-6h2z"/></svg>

<?xml version="1.0" encoding="UTF-8"?><!DOCTYPE svg PUBLIC "-//W3C//DTD SVG 1.1//EN" "http://www.w3.org/Graphics/SVG/1.1/DTD/svg11.dtd"><svg xmlns="http://www.w3.org/2000/svg" xmlns:xlink="http://www.w3.org/1999/xlink" version="1.1" id="mdi-numeric-10-box-multiple-outline" width="24" height="24" viewBox="0 0 24 24"><path d="M21 17V3H7V17H21M21 1C22.11 1 23 1.9 23 3V17C23 18.11 22.11 19 21 19H7C5.9 19 5 18.11 5 17V3C5 1.9 5.9 1 7 1H21M3 5V21H19V23H3C1.9 23 1 22.11 1 21V5H3M12 5H8V7H10V15H12V5M18 5H16C14.9 5 14 5.9 14 7V13C14 14.11 14.9 15 16 15H18C19.11 15 20 14.11 20 13V7C20 5.9 19.11 5 18 5M18 13H16V7H18V13Z" /></svg>
